papirus/48x48/categories/input-tablet.svg

<?xml version="1.0" encoding="UTF-8" standalone="no"?>
<!-- Created with Inkscape (http://www.inkscape.org/) -->

<svg
   xmlns:dc="http://purl.org/dc/elements/1.1/"
   xmlns:cc="http://creativecommons.org/ns#"
   xmlns:rdf="http://www.w3.org/1999/02/22-rdf-syntax-ns#"
   xmlns:svg="http://www.w3.org/2000/svg"
   xmlns="http://www.w3.org/2000/svg"
   xmlns:xlink="http://www.w3.org/1999/xlink"
   xmlns:sodipodi="http://sodipodi.sourceforge.net/DTD/sodipodi-0.dtd"
   xmlns:inkscape="http://www.inkscape.org/namespaces/inkscape"
   id="svg2817"
   height="48"
   width="48"
   version="1.0"
   inkscape:version="0.91 r"
   sodipodi:docname="input-tablet.svg">
  <metadata
     id="metadata57">
    <rdf:RDF>
      <cc:Work
         rdf:about="">
        <dc:format>image/svg+xml</dc:format>
        <dc:type
           rdf:resource="http://purl.org/dc/dcmitype/StillImage" />
        <dc:title />
      </cc:Work>
    </rdf:RDF>
  </metadata>
  <sodipodi:namedview
     pagecolor="#ffffff"
     bordercolor="#666666"
     borderopacity="1"
     objecttolerance="10"
     gridtolerance="10"
     guidetolerance="10"
     inkscape:pageopacity="0"
     inkscape:pageshadow="2"
     inkscape:window-width="1600"
     inkscape:window-height="840"
     id="namedview55"
     showgrid="false"
     inkscape:zoom="10.66"
     inkscape:cx="26.18093"
     inkscape:cy="23.027429"
     inkscape:window-x="-4"
     inkscape:window-y="34"
     inkscape:window-maximized="1"
     inkscape:current-layer="svg2817" />
  <defs
     id="defs2819">
    <linearGradient
       id="linearGradient2815"
       y2="17.5"
       spreadMethod="reflect"
       gradientUnits="userSpaceOnUse"
       x2="3.0052"
       y1="17.5"
       x1="44.995">
      <stop
         id="stop3277"
         style="stop-color:#fff;stop-opacity:0"
         offset="0" />
      <stop
         id="stop3283"
         style="stop-color:#fff"
         offset=".245" />
      <stop
         id="stop3285"
         style="stop-color:#fff"
         offset=".77350" />
      <stop
         id="stop3279"
         style="stop-color:#fff;stop-opacity:0"
         offset="1" />
    </linearGradient>
    <linearGradient
       id="linearGradient2813"
       y2="8"
       gradientUnits="userSpaceOnUse"
       x2="26"
       y1="22"
       x1="26">
      <stop
         id="stop3829"
         style="stop-color:#fff"
         offset="0" />
      <stop
         id="stop4295"
         style="stop-color:#fff"
         offset=".30213" />
      <stop
         id="stop4293"
         style="stop-color:#fff;stop-opacity:.69020"
         offset=".34361" />
      <stop
         id="stop3832"
         style="stop-color:#fff;stop-opacity:0"
         offset="1" />
    </linearGradient>
    <linearGradient
       id="linearGradient2811"
       y2="45.934"
       gradientUnits="userSpaceOnUse"
       x2="43.007"
       gradientTransform="matrix(1.2822 0 0 1.1747 -6.0702 -5.3032)"
       y1="30.555"
       x1="23.452">
      <stop
         id="stop4561"
         style="stop-color:#fff;stop-opacity:0"
         offset="0" />
      <stop
         id="stop4563"
         style="stop-color:#fff;stop-opacity:0"
         offset="1" />
    </linearGradient>
    <linearGradient
       id="linearGradient2809"
       y2="45.042"
       gradientUnits="userSpaceOnUse"
       x2="15.464"
       y1="7.9757"
       x1="15.464">
      <stop
         id="stop3297"
         style="stop-color:#c9af8b"
         offset="0" />
      <stop
         id="stop3299"
         style="stop-color:#ad8757"
         offset=".23942" />
      <stop
         id="stop3301"
         style="stop-color:#c2a57f"
         offset=".27582" />
      <stop
         id="stop3303"
         style="stop-color:#9d7d53"
         offset="1" />
    </linearGradient>
    <linearGradient
       id="linearGradient2807"
       y2="37.277"
       gradientUnits="userSpaceOnUse"
       x2="24.997"
       gradientTransform="matrix(1.2822 0 0 1.5573 -6.0702 -15.291)"
       y1="15.378"
       x1="24.823">
      <stop
         id="stop3201"
         style="stop-color:#dac197"
         offset="0" />
      <stop
         id="stop3203"
         style="stop-color:#c1a581"
         offset=".23942" />
      <stop
         id="stop3205"
         style="stop-color:#dbc298"
         offset=".27582" />
      <stop
         id="stop3207"
         style="stop-color:#a68b60"
         offset="1" />
    </linearGradient>
    <radialGradient
       id="radialGradient2805"
       xlink:href="#linearGradient3681"
       gradientUnits="userSpaceOnUse"
       cy="41.5"
       cx="5"
       gradientTransform="matrix(.59382 0 0 1.5367 41.141 -103.94)"
       r="5" />
    <linearGradient
       id="linearGradient2803"
       y2="35"
       gradientUnits="userSpaceOnUse"
       x2="17.554"
       gradientTransform="matrix(1.757 0 0 1.397 -17.394 -16.412)"
       y1="46"
       x1="17.554">
      <stop
         id="stop3705"
         style="stop-opacity:0"
         offset="0" />
      <stop
         id="stop3711"
         offset=".5" />
      <stop
         id="stop3707"
         style="stop-opacity:0"
         offset="1" />
    </linearGradient>
    <linearGradient
       id="linearGradient3681">
      <stop
         id="stop3683"
         offset="0" />
      <stop
         id="stop3685"
         style="stop-opacity:0"
         offset="1" />
    </linearGradient>
    <radialGradient
       id="radialGradient2801"
       xlink:href="#linearGradient3681"
       gradientUnits="userSpaceOnUse"
       cy="41.5"
       cx="5"
       gradientTransform="matrix(.59382 0 0 1.5367 -6.6595 -103.94)"
       r="5" />
    <linearGradient
       id="linearGradient2789"
       y2="25.411"
       gradientUnits="userSpaceOnUse"
       x2="57.726"
       gradientTransform="matrix(0 .71282 -.67402 0 50.746 15.046)"
       y1="25.411"
       x1="13.472">
      <stop
         id="stop4224"
         style="stop-color:#fff"
         offset="0" />
      <stop
         id="stop4226"
         style="stop-color:#fff;stop-opacity:0"
         offset="1" />
    </linearGradient>
    <linearGradient
       id="linearGradient2787"
       y2="20.71"
       gradientUnits="userSpaceOnUse"
       x2=".81572"
       gradientTransform="matrix(0 -.61460 -.58384 0 46.949 46.633)"
       y1="20.71"
       x1="28.315">
      <stop
         id="stop2266"
         style="stop-color:#d7e866"
         offset="0" />
      <stop
         id="stop2268"
         style="stop-color:#8cab2a"
         offset="1" />
    </linearGradient>
    <radialGradient
       r="5"
       gradientTransform="matrix(.59382 0 0 1.5367 41.141 -103.94)"
       cx="5"
       cy="41.5"
       gradientUnits="userSpaceOnUse"
       xlink:href="#linearGradient3681"
       id="radialGradient2805-9" />
    <radialGradient
       r="5"
       gradientTransform="matrix(.59382 0 0 1.5367 -6.6595 -103.94)"
       cx="5"
       cy="41.5"
       gradientUnits="userSpaceOnUse"
       xlink:href="#linearGradient3681"
       id="radialGradient2801-3" />
    <linearGradient
       id="linearGradient3796">
      <stop
         id="stop3798"
         offset="0"
         style="stop-color:#f7f7f7;stop-opacity:1;" />
      <stop
         id="stop3800"
         offset="1"
         style="stop-color:#ececec;stop-opacity:1;" />
    </linearGradient>
    <linearGradient
       id="linearGradient4524">
      <stop
         id="stop4526"
         offset="0"
         style="stop-color:#1c5ed1;stop-opacity:1;" />
      <stop
         id="stop4528"
         offset="1"
         style="stop-color:#3675e3;stop-opacity:1;" />
    </linearGradient>
    <linearGradient
       id="linearGradient3068-1">
      <stop
         id="stop3070-5"
         offset="0"
         style="stop-color:#dfdfdf;stop-opacity:1;" />
      <stop
         id="stop3072-7"
         offset="1"
         style="stop-color:#ffffff;stop-opacity:1;" />
    </linearGradient>
    <linearGradient
       gradientUnits="userSpaceOnUse"
       y2="1010.4795"
       x2="24.230993"
       y1="1043.1351"
       x1="24.230993"
       id="linearGradient4245"
       xlink:href="#linearGradient3068-1"
       inkscape:collect="always" />
    <linearGradient
       id="linearGradient3783-1">
      <stop
         style="stop-color:#1e94d3;stop-opacity:1;"
         offset="0"
         id="stop3785-2" />
      <stop
         id="stop3803-6"
         offset="1"
         style="stop-color:#1e94d3;stop-opacity:1;" />
    </linearGradient>
    <linearGradient
       inkscape:collect="always"
       xlink:href="#linearGradient3783-1"
       id="linearGradient3827-7"
       x1="-10"
       y1="90"
       x2="30"
       y2="50"
       gradientUnits="userSpaceOnUse" />
    <linearGradient
       id="linearGradient3821">
      <stop
         style="stop-color:#37aee2;stop-opacity:1;"
         offset="0"
         id="stop3823" />
      <stop
         style="stop-color:#1e96c8;stop-opacity:1;"
         offset="1"
         id="stop3825" />
    </linearGradient>
    <linearGradient
       id="linearGradient3829">
      <stop
         id="stop3831"
         offset="0"
         style="stop-color:#1f96d4;stop-opacity:1;" />
      <stop
         id="stop3833"
         offset="1"
         style="stop-color:#37aee2;stop-opacity:1;" />
    </linearGradient>
    <linearGradient
       id="linearGradient3877">
      <stop
         style="stop-color:#eff7fc;stop-opacity:1;"
         offset="0"
         id="stop3879" />
      <stop
         style="stop-color:#ffffff;stop-opacity:1;"
         offset="1"
         id="stop3881" />
    </linearGradient>
    <linearGradient
       y2="80"
       x2="6.6666665"
       y1="56.666668"
       x1="16.666666"
       gradientUnits="userSpaceOnUse"
       id="linearGradient3950"
       xlink:href="#linearGradient3821"
       inkscape:collect="always" />
    <linearGradient
       y2="160"
       x2="160"
       y1="120"
       x1="135"
       gradientTransform="matrix(0.19923867,0,0,0.2010056,0.25370612,1003.8542)"
       gradientUnits="userSpaceOnUse"
       id="linearGradient3980"
       xlink:href="#linearGradient3877"
       inkscape:collect="always" />
    <linearGradient
       inkscape:collect="always"
       xlink:href="#linearGradient4269"
       id="linearGradient3912"
       gradientUnits="userSpaceOnUse"
       gradientTransform="matrix(0,-1,1,0,-164,165.00001)"
       x1="143.00002"
       y1="203"
       x2="127.00002"
       y2="203" />
    <linearGradient
       inkscape:collect="always"
       id="linearGradient4269">
      <stop
         style="stop-color:#ffffff;stop-opacity:1;"
         offset="0"
         id="stop4271" />
      <stop
         style="stop-color:#ffffff;stop-opacity:0;"
         offset="1"
         id="stop4273" />
    </linearGradient>
  </defs>
  <g
     id="layer7"
     inkscape:label="Baseshape"
     style="display:none"
     transform="translate(-52.273245,-2.185958)">
    <rect
       rx="9"
       ry="9"
       y="2"
       x="2"
       height="44"
       width="44"
       id="rect4169"
       style="display:inline;fill:#abe1ad;fill-opacity:1;stroke:none" />
  </g>
  <g
     id="g4225"
     transform="translate(0,5e-6)">
    <rect
       ry="2"
       rx="2"
       y="-44"
       x="-37.999989"
       height="40"
       width="31.999985"
       id="rect4203-6"
       style="display:inline;fill:#5f7c8a;fill-opacity:1;stroke:none;enable-background:new"
       transform="matrix(0,-1,-1,0,0,0)" />
    <path
       id="rect4215"
       d="m 4,35 0,1 c 0,1.108 0.892,2 2,2 l 36,0 c 1.108,0 2,-0.892 2,-2 l 0,-1 c 0,1.108 -0.892,2 -2,2 L 6,37 C 4.892,37 4,36.108 4,35 Z"
       style="display:inline;opacity:0.3;fill:#000000;fill-opacity:1;stroke:none;enable-background:new"
       inkscape:connector-curvature="0" />
    <rect
       transform="matrix(0,-1,-1,0,0,0)"
       style="display:inline;fill:#7f96a1;fill-opacity:1;stroke:none;enable-background:new"
       id="rect3282"
       width="26"
       height="34"
       x="-34.999989"
       y="-41"
       rx="0"
       ry="0" />
    <path
       sodipodi:nodetypes="ssssccs"
       inkscape:connector-curvature="0"
       style="display:inline;opacity:0.1;fill:url(#linearGradient3912);fill-opacity:1;stroke:none;enable-background:new"
       d="m 4,35.99999 c 0,1.108 0.892,2 2,2 l 36,0 c 1.108,0 2,-0.892 2,-2 l 0,-14 -40,0 z"
       id="path4294" />
    <path
       inkscape:connector-curvature="0"
       id="rect4414"
       d="m 6,5.99999 c -1.108,0 -2,0.892 -2,2 l 0,1 c 0,-1.108 0.892,-2 2,-2 l 36,0 c 1.108,0 2,0.892 2,2 l 0,-1 c 0,-1.108 -0.892,-2 -2,-2 l -36,0 z"
       style="display:inline;opacity:0.2;fill:#ffffff;fill-opacity:1;stroke:none;enable-background:new" />
    <circle
       id="path4058"
       style="display:inline;fill:#f34235;fill-opacity:1;stroke:none;enable-background:new"
       cx="36"
       cy="31.99999"
       r="10" />
    <path
       style="display:inline;fill:#ffffff;fill-opacity:1;stroke:none;enable-background:new"
       sodipodi:nodetypes="cccccccsscccc"
       id="path4-0"
       d="M 30,35.32715 30,38 l 2.67285,0 6.75067,-6.75067 -2.67285,-2.67285 z m 11.78797,-6.4337 c 0.28271,-0.28271 0.28271,-0.72818 0,-1.01089 l -1.67053,-1.67053 c -0.28271,-0.28271 -0.72818,-0.28271 -1.01089,0 l -1.39639,1.40496 2.67285,2.67285 z"
       inkscape:connector-curvature="0" />
    <path
       id="circle4220"
       d="M 45.978516,31.414062 A 10,10 0 0 1 36,41 10,10 0 0 1 26.021484,31.585938 10,10 0 0 0 26,32 10,10 0 0 0 36,42 10,10 0 0 0 46,32 10,10 0 0 0 45.978516,31.414062 Z"
       style="display:inline;opacity:0.3;fill:#000000;fill-opacity:1;stroke:none;enable-background:new"
       inkscape:connector-curvature="0" />
  </g>
</svg>

<?xml version="1.0" encoding="UTF-8" standalone="no"?>
<!-- Created with Inkscape (http://www.inkscape.org/) -->
<svg id="svg2817" xmlns:rdf="http://www.w3.org/1999/02/22-rdf-syntax-ns#" xmlns="http://www.w3.org/2000/svg" height="48" width="48" version="1.0" xmlns:cc="http://creativecommons.org/ns#" xmlns:xlink="http://www.w3.org/1999/xlink" xmlns:dc="http://purl.org/dc/elements/1.1/">
 <metadata id="metadata57">
  <rdf:RDF>
   <cc:Work rdf:about="">
    <dc:format>image/svg+xml</dc:format>
    <dc:type rdf:resource="http://purl.org/dc/dcmitype/StillImage"/>
    <dc:title/>
   </cc:Work>
  </rdf:RDF>
 </metadata>
 <defs id="defs2819">
  <linearGradient id="linearGradient3912" y2="203" gradientUnits="userSpaceOnUse" x2="127" gradientTransform="matrix(0 -1 1 0 -164 165)" y1="203" x1="143">
   <stop id="stop4271" stop-color="#fff" offset="0"/>
   <stop id="stop4273" stop-color="#fff" stop-opacity="0" offset="1"/>
  </linearGradient>
 </defs>
 <g id="layer7" display="none" transform="translate(-52.273 -2.186)">
  <rect id="rect4169" rx="9" ry="9" height="44" width="44" display="inline" y="2" x="2" fill="#abe1ad"/>
 </g>
 <g id="g4225" transform="translate(0,5e-6)">
  <rect id="rect4203-6" style="enable-background:new" transform="matrix(0,-1,-1,0,0,0)" rx="2" ry="2" height="40" width="32" y="-44" x="-38" fill="#5f7c8a"/>
  <path id="rect4215" opacity=".3" style="enable-background:new" d="m4 35v1c0 1.108 0.892 2 2 2h36c1.108 0 2-0.892 2-2v-1c0 1.108-0.892 2-2 2h-36c-1.108 0-2-0.892-2-2z"/>
  <rect id="rect3282" ry="0" style="enable-background:new" rx="0" transform="matrix(0,-1,-1,0,0,0)" height="34" width="26" y="-41" x="-35" fill="#7f96a1"/>
  <path id="path4294" opacity=".1" style="enable-background:new" d="m4 36c0 1.108 0.892 2 2 2h36c1.108 0 2-0.892 2-2v-14h-40z" fill="url(#linearGradient3912)"/>
  <path id="rect4414" opacity=".2" style="enable-background:new" d="m6 6c-1.108 0-2 0.892-2 2v1c0-1.108 0.892-2 2-2h36c1.108 0 2 0.892 2 2v-1c0-1.108-0.892-2-2-2h-36z" fill="#fff"/>
  <circle id="path4058" style="enable-background:new" cx="36" cy="32" r="10" fill="#f34235"/>
  <path id="path4-0" style="enable-background:new" d="m30 35.327v2.673h2.6728l6.7507-6.7507-2.6728-2.6728zm11.788-6.4337c0.28271-0.28271 0.28271-0.72818 0-1.0109l-1.6705-1.6705c-0.28271-0.28271-0.72818-0.28271-1.0109 0l-1.3964 1.405 2.6728 2.6728z" fill="#fff"/>
  <path id="circle4220" opacity=".3" style="enable-background:new" d="m45.979 31.414a10 10 0 0 1 -9.979 9.586 10 10 0 0 1 -9.979 -9.414 10 10 0 0 0 -0.021 0.414 10 10 0 0 0 10 10 10 10 0 0 0 10 -10 10 10 0 0 0 -0.021 -0.586z"/>
 </g>
</svg>
